public/assets/img/casestudies/wellmee/brandWellmee.svg

<svg fill="none" height="81" viewBox="0 0 143 81" width="143" xmlns="http://www.w3.org/2000/svg"><path d="m141.794 7.90345c-.104-.95549-1.275-.92831-1.448.017-4.981 27.13705-12.139 42.10155-27.34 53.21495-.486.3553-1.076-.3809-.663-.8196 8.622-9.1723 14.958-21.8878 18.804-40.1619.133-.6352-.733-.938-1.037-.3647-16.754 31.5568-30.2309 38.5133-36.1551 40.2981-.4181.1259-.6824-.436-.3453-.7136 3.2958-2.7139 11.1054-10.0315 14.9534-21.1403.239-.6896-.626-1.1366-1.094-.577-13.9553 16.6761-25.1706 21.6197-29.8649 23.0451-.6223.1889-.9334-.5124-.4227-.915 4.1359-3.2604 13.6299-11.5883 16.6664-21.4497.214-.695-.621-1.1114-1.1031-.567-10.576 11.9433-18.1377 17.6417-29.9083 20.4842-.2835.0685-.4488-.3011-.2137-.4737 8.3174-6.1045 12.8168-11.1905 16.611-19.341.2399-.5154-.3653-.9905-.8195-.6487-12.5739 9.4604-21.0767 14.9296-34.3834 15.7453-.6365.039-.7619-.7327-.1519-.9183 5.6242-1.7106 14.5095-4.9803 19.2225-13.0406.2301-.3935-.238-.7932-.6206-.5454-20.3852 13.2053-36.2701-2.183-33.5516-3.2351.0064-.0025.014-.0047.0207-.006 2.7884-.5592 7.0257-2.0317 9.3182-2.8652.5744-.2089.5807-1.0152.021-1.2609-11.0935-4.8709-18.3706-13.0761-25.8986-22.14746-3.11506-3.18531-6.5727-6.09649-9.91972-9.178211-.5301-.488081-1.36778-.4141311-1.798215.163754-.378709.508437-.298946 1.222907.179736 1.638587 3.240209 2.81376 6.416139 5.76941 9.616599 9.02183-1.64078 2.6139-2.45715 8.5732-2.11937 11.3074.07615.6164.47787.6843.65047.0877.48787-1.6865 1.1911-5.2302 2.3645-6.2289.1228-.1045.2692.0178.2251.1729-2.05431 7.2243-2.69411 14.6805-2.03146 15.8259 1.00026 1.7289 1.60506-6.2491 4.77716-7.4054.2425-.0884.414.1813.2842.4045-2.1448 3.6859-2.9064 9.8072-2.1158 12.114.1069.3121.4821.2804.6057-.0255.9643-2.3873 2.0693-6.3768 3.9853-6.2717.0943.0052.1631.0904.1631.1849.0002 11.1679.038 14.953 7.7147 24.956.4363.5684.987.154.5903-.3509-.847-1.0779-.616-1.8667-.308-2.0019s.4842.2558.693.616c1.1899 2.0525 2.6842 4.4971 5.6977 7.7767 3.2043 3.4873 7.6896 6.9021 11.6859 9.2885 25.0108 14.4848 57.6766 10.7634 78.5166-8.9559 15.108-14.3053 21.544-40.0116 19.946-54.75375z" fill="#00ceba"/></svg>

<svg width="143" height="81" viewBox="0 0 143 81" fill="none" xmlns="http://www.w3.org/2000/svg">
<path d="M141.794 7.90345C141.69 6.94796 140.519 6.97514 140.346 7.92045C135.365 35.0575 128.207 50.022 113.006 61.1354C112.52 61.4907 111.93 60.7545 112.343 60.3158C120.965 51.1435 127.301 38.428 131.147 20.1539C131.28 19.5187 130.414 19.2159 130.11 19.7892C113.356 51.346 99.8791 58.3025 93.9549 60.0873C93.5368 60.2132 93.2725 59.6513 93.6096 59.3737C96.9054 56.6598 104.715 49.3422 108.563 38.2334C108.802 37.5438 107.937 37.0968 107.469 37.6564C93.5137 54.3325 82.2984 59.2761 77.6041 60.7015C76.9818 60.8904 76.6707 60.1891 77.1814 59.7865C81.3173 56.5261 90.8113 48.1982 93.8478 38.3368C94.0618 37.6418 93.2268 37.2254 92.7447 37.7698C82.1687 49.7131 74.607 55.4115 62.8364 58.254C62.5529 58.3225 62.3876 57.9529 62.6227 57.7803C70.9401 51.6758 75.4395 46.5898 79.2337 38.4393C79.4736 37.9239 78.8684 37.4488 78.4142 37.7906C65.8403 47.251 57.3375 52.7202 44.0308 53.5359C43.3943 53.5749 43.2689 52.8032 43.8789 52.6176C49.5031 50.907 58.3884 47.6373 63.1014 39.577C63.3315 39.1835 62.8634 38.7838 62.4808 39.0316C42.0956 52.2369 26.2107 36.8486 28.9292 35.7965C28.9356 35.794 28.9432 35.7918 28.9499 35.7905C31.7383 35.2313 35.9756 33.7588 38.2681 32.9253C38.8425 32.7164 38.8488 31.9101 38.2891 31.6644C27.1956 26.7935 19.9185 18.5883 12.3905 9.51694C9.27544 6.33163 5.8178 3.42045 2.47078 0.338729C1.94068 -0.149352 1.103 -0.0754021 0.672565 0.502483C0.293856 1.01092 0.373619 1.72539 0.852301 2.14107C4.09251 4.95483 7.26844 7.91048 10.4689 11.1629C8.82812 13.7768 8.01175 19.7361 8.34953 22.4703C8.42568 23.0867 8.8274 23.1546 9 22.558C9.48787 20.8715 10.1911 17.3278 11.3645 16.3291C11.4873 16.2246 11.6337 16.3469 11.5896 16.502C9.53529 23.7263 8.89549 31.1825 9.55814 32.3279C10.5584 34.0568 11.1632 26.0788 14.3353 24.9225C14.5778 24.8341 14.7493 25.1038 14.6195 25.327C12.4747 29.0129 11.7131 35.1342 12.5037 37.441C12.6106 37.7531 12.9858 37.7214 13.1094 37.4155C14.0737 35.0282 15.1787 31.0387 17.0947 31.1438C17.189 31.149 17.2578 31.2342 17.2578 31.3287C17.258 42.4966 17.2958 46.2817 24.9725 56.2847C25.4088 56.8531 25.9595 56.4387 25.5628 55.9338C24.7158 54.8559 24.9468 54.0671 25.2548 53.9319C25.5628 53.7967 25.739 54.1877 25.9478 54.5479C27.1377 56.6004 28.632 59.045 31.6455 62.3246C34.8498 65.8119 39.3351 69.2267 43.3314 71.6131C68.3422 86.0979 101.008 82.3765 121.848 62.6572C136.956 48.3519 143.392 22.6456 141.794 7.90345Z" fill="#00CEBA"/>
</svg>
